svgs/sharp-regular/code-fork.svg

<svg xmlns="http://www.w3.org/2000/svg" viewBox="0 0 448 512"><!--! Font Awesome Pro 6.6.0 by @fontawesome - https://fontawesome.com License - https://fontawesome.com/license (Commercial License) Copyright 2024 Fonticons, Inc. --><path d="M112 48l0 64-64 0 0-64 64 0zM48 0L0 0 0 48l0 64 0 48 48 0 8 0 0 32c0 48.6 39.4 88 88 88l56 0 0 72-8 0-48 0 0 48 0 64 0 48 48 0 64 0 48 0 0-48 0-64 0-48-48 0-8 0 0-72 56 0c48.6 0 88-39.4 88-88l0-32 8 0 48 0 0-48 0-64 0-48L400 0 336 0 288 0l0 48 0 64 0 48 48 0 8 0 0 32c0 22.1-17.9 40-40 40l-160 0c-22.1 0-40-17.9-40-40l0-32 8 0 48 0 0-48 0-64 0-48L112 0 48 0zM400 48l0 64-64 0 0-64 64 0zM192 400l64 0 0 64-64 0 0-64z"/></svg>

<svg xmlns="http://www.w3.org/2000/svg" viewBox="0 0 448 512"><!--! Font Awesome Pro 6.4.0 by @fontawesome - https://fontawesome.com License - https://fontawesome.com/license (Commercial License) Copyright 2023 Fonticons, Inc. --><path d="M112 48v64H48V48h64zM48 0H0V48v64 48H48h8v32c0 48.6 39.4 88 88 88h56v72h-8H144v48 64 48h48 64 48V464 400 352H256h-8V280h56c48.6 0 88-39.4 88-88V160h8 48V112 48 0H400 336 288V48v64 48h48 8v32c0 22.1-17.9 40-40 40H144c-22.1 0-40-17.9-40-40V160h8 48V112 48 0H112 48zM400 48v64H336V48h64zM192 400h64v64H192V400z"/></svg>
